dist/svg/home.svg

<!-- Generated by Trend Micro Style Portal -->
<svg version="1.1" xmlns="http://www.w3.org/2000/svg" width="16" height="16" viewBox="0 0 16 16">
  <title>home</title>
  <path fill="rgb(34,34,34)" d="M15.753 8.341l-1.753-2.003v-5.339h-2v3.053l-3.247-3.711c-0.184-0.21-0.453-0.341-0.753-0.341s-0.568 0.132-0.752 0.34l-0.001 0.001-7 8c-0.154 0.175-0.247 0.406-0.247 0.659 0 0.552 0.448 1 1 1h0.924v6h4.076v-5h4v5h4v-6h1c0.552 0 1-0.448 1-1 0-0.253-0.094-0.484-0.248-0.66l0.001 0.001z"></path>
</svg>

<svg width="16" height="16" viewBox="0 0 16 16" fill="rgb(34, 34, 34)" xmlns="http://www.w3.org/2000/svg"><title>home</title><path d="M15.753 8.341L14 6.338V0.999H12V4.052L8.753 0.341C8.569 0.131 8.3 0 8 0C7.7 0 7.432 0.132 7.248 0.34L7.247 0.341L0.247 8.341C0.093 8.516 0 8.747 0 9C0 9.552 0.448 10 1 10H1.924V16H6V11H10V16H14V10H15C15.552 10 16 9.552 16 9C16 8.747 15.906 8.516 15.752 8.34L15.753 8.341Z" fill="rgb(34, 34, 34)" fill-opacity="1.00"/></svg>
